svgs/duotone/austral-sign.svg

<svg xmlns="http://www.w3.org/2000/svg" viewBox="0 0 448 512"><!--! Font Awesome Pro 6.1.1 by @fontawesome - https://fontawesome.com License - https://fontawesome.com/license (Commercial License) Copyright 2022 Fonticons, Inc. --><defs><style>.fa-secondary{opacity:.4}</style></defs><path class="fa-primary" d="M224 32C236.9 32 248.6 39.77 253.5 51.69L413.5 435.7C420.3 452 412.6 470.7 396.3 477.5C379.1 484.3 361.3 476.6 354.5 460.3L224 147.2L93.54 460.3C86.74 476.6 68.01 484.3 51.69 477.5C35.38 470.7 27.66 452 34.46 435.7L194.5 51.69C199.4 39.77 211.1 32 224 32H224z"/><path class="fa-secondary" d="M96 288H32C14.33 288 0 273.7 0 256C0 238.3 14.33 224 32 224H122.7L96 288zM56 384H32C14.33 384 0 369.7 0 352C0 334.3 14.33 320 32 320H82.67L56 384zM125.3 384L152 320H296L322.7 384H125.3zM365.3 320H416C433.7 320 448 334.3 448 352C448 369.7 433.7 384 416 384H392L365.3 320zM325.3 224H416C433.7 224 448 238.3 448 256C448 273.7 433.7 288 416 288H352L325.3 224zM192 224H256L282.7 288H165.3L192 224z"/></svg>

<svg xmlns="http://www.w3.org/2000/svg" viewBox="0 0 448 512"><!--! Font Awesome Pro 6.4.2 by @fontawesome - https://fontawesome.com License - https://fontawesome.com/license (Commercial License) Copyright 2023 Fonticons, Inc. --><path class="fa-primary" style="fill:var(--fa-primary-color,inherit);opacity:var(--fa-primary-opacity,1);" d="M224 32c12.9 0 24.6 7.8 29.5 19.7l160 384c6.8 16.3-.9 35-17.2 41.8s-35-.9-41.8-17.2L224 147.2 93.5 460.3c-6.8 16.3-25.5 24-41.8 17.2s-24-25.5-17.2-41.8l160-384C199.4 39.8 211.1 32 224 32z"/><path class="fa-secondary" style="fill:var(--fa-secondary-color,inherit);opacity:var(--fa-secondary-opacity,.4);" d="M122.7 224L96 288H32c-17.7 0-32-14.3-32-32s14.3-32 32-32h90.7zm-40 96L56 384H32c-17.7 0-32-14.3-32-32s14.3-32 32-32H82.7zm42.7 64L152 320H296l26.7 64H125.3zM392 384l-26.7-64H416c17.7 0 32 14.3 32 32s-14.3 32-32 32H392zm-40-96l-26.7-64H416c17.7 0 32 14.3 32 32s-14.3 32-32 32H352zM192 224h64l26.7 64H165.3L192 224z"/></svg>
